X:1
T:RVW2/1/118 A Man Shall Live
T:RVW2/1/118 A Man Shall Live
T:Transcribed by Simon Furey and Lewis Jones Mrs. Wheeler, Weobley, July 28th 1908(?)
C:Transcribed by Simon Furey and Lewis Jones
C:Mrs. Wheeler, Weobley, July 28th 1908(?)
L:1/8
Q:1/4=100
M:4/4
K:C
V:1 treble 
V:1
"^(Editorial suggestion)" CD | E2 DC G3 F | E2 D2 C2 G2 | B2 G2"^(a)" FG B2 | G6 EF | %5
"^(b)" G"^*"A G2 F2 GF | C2 CD E2 EF | G2 GF E2 D2 | C6 || CD | E2 DC G3 F | E2 D2 C2 G2 | %12
 B2 G2"^(a) var." F2 G2 | G6 EF |"^(b) var.""^* occasionally A" G2"^*" AG F2 GF | C2 CD E2 EF | %16
 G2 GF E2 D2 | C6 |] %18

